Newaita-dark/apps/22/com.github.freeeradicals.elements.svg

<svg height="22" viewBox="0 0 22 22" width="22" xmlns="http://www.w3.org/2000/svg" xmlns:xlink="http://www.w3.org/1999/xlink"><linearGradient id="a" gradientUnits="userSpaceOnUse" x1="10.9151136" x2="10.9151136" y1="19.27333715" y2="20.18293042919"><stop offset="0" stop-opacity=".27451"/><stop offset="1" stop-opacity="0"/></linearGradient><linearGradient id="b"><stop offset="0" stop-opacity=".313726"/><stop offset=".222222" stop-opacity=".27451"/><stop offset="1" stop-opacity="0"/></linearGradient><radialGradient id="c" cx="450.908936" cy="189.579361" gradientTransform="matrix(.00000012 -.0537161 -.0966889 -.00000007 35.839821 43.721791)" gradientUnits="userSpaceOnUse" r="21.166656" xlink:href="#b"/><radialGradient id="d" cx="450.908936" cy="189.579361" gradientTransform="matrix(-.00000012 .0537161 .0966889 .00000007 -14.009609 -5.175142)" gradientUnits="userSpaceOnUse" r="21.166656" xlink:href="#b"/><radialGradient id="e" cx="450.908936" cy="189.579361" gradientTransform="matrix(-.00000012 -.0537161 .0966889 -.00000007 -14.009609 43.721791)" gradientUnits="userSpaceOnUse" r="21.166656" xlink:href="#b"/><radialGradient id="f" cx="450.908936" cy="189.579361" gradientTransform="matrix(.00000012 .0537161 -.0966889 .00000007 35.839819 -5.175142)" gradientUnits="userSpaceOnUse" r="21.166656" xlink:href="#b"/><linearGradient id="g" gradientUnits="userSpaceOnUse" x1="7.27674417081" x2="7.27674417081" y1="19.27333515" y2="1.99106765838"><stop offset="0" stop-color="#42a5f5"/><stop offset="1" stop-color="#64b5f6"/></linearGradient><linearGradient id="h"><stop offset="0" stop-color="#bdbdbd"/><stop offset="1" stop-color="#e0e0e0"/></linearGradient><linearGradient id="i" gradientUnits="userSpaceOnUse" x1="7.276736" x2="7.276736" xlink:href="#h" y1="19.27332401286" y2="1.99107567177"/><linearGradient id="j" gradientUnits="userSpaceOnUse" x1="16.3726749" x2="16.3726749" xlink:href="#h" y1="8.81301506068" y2="2.90066025"/><path d="m4.09375 19.207031h13.644531v1.007813h-13.644531zm0 0" fill="url(#a)"/><path d="m17.738281 19.273438h1.816407v-.910157h-1.816407zm0 0" fill="url(#c)"/><path d="m4.09375 19.273438h-1.820312v.910156h1.820312zm0 0" fill="url(#d)"/><path d="m4.09375 19.273438h-1.820312v-.910157h1.820312zm0 0" fill="url(#e)"/><path d="m17.738281 19.273438h1.816407v.910156h-1.816407zm0 0" fill="url(#f)"/><path d="m3.183594 1.992188h15.464844c.5 0 .90625.40625.90625.910156v15.460937c0 .503907-.40625.910157-.90625.910157h-15.464844c-.503906 0-.910156-.40625-.910156-.910157v-15.460937c0-.503906.40625-.910156.910156-.910156zm0 0" fill="url(#g)"/><path d="m3.183594 1.992188c-.503906 0-.910156.40625-.910156.910156v.113281c0-.503906.40625-.910156.910156-.910156h15.464844c.503906 0 .90625.40625.90625.910156v-.113281c0-.503906-.402344-.910156-.90625-.910156zm0 0" fill="#e6e6e6" fill-opacity=".392157"/><path d="m3.183594 19.273438c-.503906 0-.910156-.40625-.910156-.910157v-.113281c0 .503906.40625.910156.910156.910156h15.464844c.503906 0 .90625-.40625.90625-.910156v.113281c0 .503907-.402344.910157-.90625.910157zm0 0" fill-opacity=".196078"/><path d="m74.083834-168.640791h359.874725c11.635253 0 21.088895 9.453643 21.088895 21.179796v359.783824c0 11.726153-9.453642 21.179796-21.088895 21.179796h-359.874725c-11.726152 0-21.179795-9.453643-21.179795-21.179796v-359.783824c0-11.726153 9.453643-21.179796 21.179795-21.179796zm0 0" fill="none" stroke="#212121" stroke-linecap="round" stroke-width="3" transform="matrix(.0429729 0 0 .0429729 0 9.239163)"/><path d="m4.546875 9.722656c-.25 0-.453125.203125-.453125.453125v6.824219c0 .25.203125.453125.453125.453125h.910156c.253907 0 .457031-.203125.457031-.453125v-2.730469h3.183594v2.730469c0 .25.199219.453125.453125.453125h.910157c.25 0 .453124-.203125.453124-.453125v-6.824219c0-.25-.203124-.453125-.453124-.453125h-.910157c-.253906 0-.453125.203125-.453125.453125v2.730469h-3.183594v-2.730469c0-.25-.203124-.453125-.457031-.453125zm0 0" fill="url(#i)"/><path d="m4.546875 9.722656c-.25 0-.453125.203125-.453125.453125v.230469c0-.253906.203125-.457031.453125-.457031h.910156c.253907 0 .457031.203125.457031.457031v-.230469c0-.25-.203124-.453125-.457031-.453125zm5.003906 0c-.253906 0-.453125.203125-.453125.453125v.230469c0-.253906.199219-.457031.453125-.457031h.910157c.25 0 .453124.203125.453124.457031v-.230469c0-.25-.203124-.453125-.453124-.453125zm-3.636719 3.183594v.226562h3.183594v-.226562zm0 0" fill="#fff"/><path d="m5.914062 14.269531v.457031h3.183594v-.457031zm-1.820312 2.730469v.453125c0 .253906.203125.457031.453125.457031h.910156c.253907 0 .457031-.203125.457031-.457031v-.453125c0 .25-.203124.453125-.457031.453125h-.910156c-.25 0-.453125-.203125-.453125-.453125zm5.003906 0v.453125c0 .253906.199219.457031.453125.457031h.910157c.25 0 .453124-.203125.453124-.457031v-.453125c0 .25-.203124.453125-.453124.453125h-.910157c-.253906 0-.453125-.203125-.453125-.453125zm0 0" fill-opacity=".235294"/><path d="m399.904566 855.122393c-21.987879 0-39.853032 17.865153-39.853032 39.853033v600.20041c0 21.98788 17.865153 39.853033 39.853032 39.853033h80.049626c22.33144 0 40.196593-17.865153 40.196593-39.853033v-240.148876h280.001909v240.148876c0 21.98788 17.521591 39.853033 39.853032 39.853033h80.049625c21.98788 0 39.853033-17.865153 39.853033-39.853033v-600.20041c0-21.98788-17.865153-39.853033-39.853033-39.853033h-80.049625c-22.331441 0-39.853032 17.865153-39.853032 39.853033v240.148876h-280.001909v-240.148876c0-21.98788-17.865153-39.853033-40.196593-39.853033zm0 0" fill="none" stroke="#212121" stroke-linecap="round" stroke-linejoin="round" stroke-width="11.338583" transform="scale(.0113699)"/><path d="m16.816406 3.292969c-.132812.003906-.257812.058593-.355468.152343l-1.363282 1.363282c-.132812.132812-.1875.324218-.136718.503906.046874.179688.1875.320312.367187.367188.179687.046874.371094-.007813.5-.140626l.324219-.324218-.242188 2.171875h-.902344c-.183593 0-.359374.097656-.453124.257812-.09375.160157-.09375.359375 0 .519531.09375.160157.269531.257813.453124.253907h2.730469c.28125-.003907.507813-.234375.507813-.515625s-.226563-.511719-.507813-.515625h-.789062l.390625-3.519531c.015625-.148438-.03125-.292969-.132813-.40625-.097656-.109376-.242187-.167969-.390625-.167969zm0 0" fill="url(#j)"/><path d="m16.816406 3.292969c-.132812.003906-.257812.058593-.355468.152343l-1.363282 1.363282c-.121094.121094-.175781.289062-.148437.457031.019531-.105469.070312-.207031.148437-.28125l1.363282-1.363281c.097656-.09375.222656-.148438.355468-.152344.257813-.003906.480469.179688.519532.433594l.003906-.035156c.015625-.148438-.03125-.292969-.132813-.40625-.097656-.109376-.242187-.167969-.390625-.167969zm-.664062 2.152343-.027344.027344-.214844 1.914063h-.902344c-.152343 0-.296874.066406-.398437.179687-.097656.117188-.140625.273438-.117187.421875.042968-.25.261718-.429687.515624-.425781h.902344l.214844-1.914062.003906-.007813zm.820312 1.941407-.023437.230469h.019531l.003906-.054688h.765625c.246094.003906.457031.183594.5.425781.023438-.148437-.015625-.300781-.113281-.414062-.097656-.117188-.238281-.183594-.386719-.1875zm0 0" fill="#fff"/><path d="m17.328125 3.976562-.378906 3.410157h.03125l.359375-3.230469c.007812-.0625.003906-.121094-.011719-.179688zm-1.175781 1.238282-.324219.324218c-.128906.132813-.316406.183594-.496094.140626-.175781-.042969-.316406-.179688-.367187-.355469-.066406.226562.03125.46875.234375.589843.203125.117188.464843.082032.628906-.085937l.289063-.289063zm-1.644532 2.832031c-.046874.15625-.015624.328125.082032.457031s.253906.207032.417968.203125h2.730469c.160157-.003906.308594-.078125.40625-.207031.09375-.132812.125-.296875.078125-.453125-.0625.21875-.257812.367187-.484375.371094h-2.730469c-.230468.003906-.4375-.148438-.5-.371094zm0 0" fill-opacity=".235294"/><path d="m391.326267-138.370954c-3.090614.0909-5.999428 1.363506-8.271938 3.545116l-31.724243 31.724243c-3.090614 3.090614-4.36322 7.544734-3.181514 11.726153 1.090805 4.181419 4.363219 7.453834 8.544638 8.544639s8.635539-.181801 11.635253-3.272415l7.544734-7.544734-5.635826 50.540628h-20.997994c-4.27232 0-8.362838 2.27251-10.544448 5.999427s-2.18161 8.362838 0 12.089755c2.18161 3.726916 6.272128 5.999427 10.544448 5.908526h63.539386c6.54483-.0909 11.817054-5.454024 11.817054-11.998854 0-6.544829-5.272224-11.907954-11.817054-11.998854h-18.361882l9.090041-81.90127c.363601-3.454215-.727204-6.817531-3.090614-9.453642-2.272511-2.545212-5.635826-3.908718-9.090041-3.908718zm0 0" fill="none" stroke="#212121" stroke-linecap="round" stroke-linejoin="round" stroke-width="3" transform="matrix(.0429729 0 0 .0429729 0 9.239163)"/></svg>

<?xml version="1.0" encoding="UTF-8"?>
<svg xmlns="http://www.w3.org/2000/svg" xmlns:xlink="http://www.w3.org/1999/xlink" width="22px" height="22px" viewBox="0 0 22 22" version="1.1">
<defs>
<linearGradient id="linear0" gradientUnits="userSpaceOnUse" x1="254" y1="233.5" x2="254" y2="254.666672" gradientTransform="matrix(0.0429729,0,0,0.0429729,-0.00000262285,9.239165)">
<stop offset="0" style="stop-color:rgb(0%,0%,0%);stop-opacity:0.27451;"/>
<stop offset="1" style="stop-color:rgb(0%,0%,0%);stop-opacity:0;"/>
</linearGradient>
<radialGradient id="radial0" gradientUnits="userSpaceOnUse" cx="450.908936" cy="189.579361" fx="450.908936" fy="189.579361" r="21.166656" gradientTransform="matrix(0.000000119742,-0.0537161,-0.0966889,-0.0000000698078,35.839821,43.721791)">
<stop offset="0" style="stop-color:rgb(0%,0%,0%);stop-opacity:0.313726;"/>
<stop offset="0.222222" style="stop-color:rgb(0%,0%,0%);stop-opacity:0.27451;"/>
<stop offset="1" style="stop-color:rgb(0%,0%,0%);stop-opacity:0;"/>
</radialGradient>
<radialGradient id="radial1" gradientUnits="userSpaceOnUse" cx="450.908936" cy="189.579361" fx="450.908936" fy="189.579361" r="21.166656" gradientTransform="matrix(-0.000000119742,0.0537161,0.0966889,0.0000000698078,-14.009609,-5.175142)">
<stop offset="0" style="stop-color:rgb(0%,0%,0%);stop-opacity:0.313726;"/>
<stop offset="0.222222" style="stop-color:rgb(0%,0%,0%);stop-opacity:0.27451;"/>
<stop offset="1" style="stop-color:rgb(0%,0%,0%);stop-opacity:0;"/>
</radialGradient>
<radialGradient id="radial2" gradientUnits="userSpaceOnUse" cx="450.908936" cy="189.579361" fx="450.908936" fy="189.579361" r="21.166656" gradientTransform="matrix(-0.000000119742,-0.0537161,0.0966889,-0.0000000698078,-14.009609,43.721791)">
<stop offset="0" style="stop-color:rgb(0%,0%,0%);stop-opacity:0.313726;"/>
<stop offset="0.222222" style="stop-color:rgb(0%,0%,0%);stop-opacity:0.27451;"/>
<stop offset="1" style="stop-color:rgb(0%,0%,0%);stop-opacity:0;"/>
</radialGradient>
<radialGradient id="radial3" gradientUnits="userSpaceOnUse" cx="450.908936" cy="189.579361" fx="450.908936" fy="189.579361" r="21.166656" gradientTransform="matrix(0.000000119742,0.0537161,-0.0966889,0.0000000698078,35.839819,-5.175142)">
<stop offset="0" style="stop-color:rgb(0%,0%,0%);stop-opacity:0.313726;"/>
<stop offset="0.222222" style="stop-color:rgb(0%,0%,0%);stop-opacity:0.27451;"/>
<stop offset="1" style="stop-color:rgb(0%,0%,0%);stop-opacity:0;"/>
</radialGradient>
<linearGradient id="linear1" gradientUnits="userSpaceOnUse" x1="169.333328" y1="233.5" x2="169.333328" y2="-168.666656" gradientTransform="matrix(0.0429729,0,0,0.0429729,0,9.239163)">
<stop offset="0" style="stop-color:rgb(25.882354%,64.705884%,96.078432%);stop-opacity:1;"/>
<stop offset="1" style="stop-color:rgb(39.215687%,70.980394%,96.470588%);stop-opacity:1;"/>
</linearGradient>
<linearGradient id="linear2" gradientUnits="userSpaceOnUse" x1="640" y1="1695.118164" x2="640" y2="175.118134" gradientTransform="matrix(0.0113699,0,0,0.0113699,0,0)">
<stop offset="0" style="stop-color:rgb(74.117649%,74.117649%,74.117649%);stop-opacity:1;"/>
<stop offset="1" style="stop-color:rgb(87.843138%,87.843138%,87.843138%);stop-opacity:1;"/>
</linearGradient>
<linearGradient id="linear3" gradientUnits="userSpaceOnUse" x1="381" y1="-9.916667" x2="381" y2="-147.5" gradientTransform="matrix(0.0429729,0,0,0.0429729,0,9.239163)">
<stop offset="0" style="stop-color:rgb(74.117649%,74.117649%,74.117649%);stop-opacity:1;"/>
<stop offset="1" style="stop-color:rgb(87.843138%,87.843138%,87.843138%);stop-opacity:1;"/>
</linearGradient>
</defs>
<g id="surface1">
<path style=" stroke:none;fill-rule:nonzero;fill:url(#linear0);" d="M 4.09375 19.207031 L 17.738281 19.207031 L 17.738281 20.214844 L 4.09375 20.214844 Z M 4.09375 19.207031 "/>
<path style=" stroke:none;fill-rule:nonzero;fill:url(#radial0);" d="M 17.738281 19.273438 L 19.554688 19.273438 L 19.554688 18.363281 L 17.738281 18.363281 Z M 17.738281 19.273438 "/>
<path style=" stroke:none;fill-rule:nonzero;fill:url(#radial1);" d="M 4.09375 19.273438 L 2.273438 19.273438 L 2.273438 20.183594 L 4.09375 20.183594 Z M 4.09375 19.273438 "/>
<path style=" stroke:none;fill-rule:nonzero;fill:url(#radial2);" d="M 4.09375 19.273438 L 2.273438 19.273438 L 2.273438 18.363281 L 4.09375 18.363281 Z M 4.09375 19.273438 "/>
<path style=" stroke:none;fill-rule:nonzero;fill:url(#radial3);" d="M 17.738281 19.273438 L 19.554688 19.273438 L 19.554688 20.183594 L 17.738281 20.183594 Z M 17.738281 19.273438 "/>
<path style=" stroke:none;fill-rule:nonzero;fill:url(#linear1);" d="M 3.183594 1.992188 L 18.648438 1.992188 C 19.148438 1.992188 19.554688 2.398438 19.554688 2.902344 L 19.554688 18.363281 C 19.554688 18.867188 19.148438 19.273438 18.648438 19.273438 L 3.183594 19.273438 C 2.679688 19.273438 2.273438 18.867188 2.273438 18.363281 L 2.273438 2.902344 C 2.273438 2.398438 2.679688 1.992188 3.183594 1.992188 Z M 3.183594 1.992188 "/>
<path style=" stroke:none;fill-rule:nonzero;fill:rgb(90.196079%,90.196079%,90.196079%);fill-opacity:0.392157;" d="M 3.183594 1.992188 C 2.679688 1.992188 2.273438 2.398438 2.273438 2.902344 L 2.273438 3.015625 C 2.273438 2.511719 2.679688 2.105469 3.183594 2.105469 L 18.648438 2.105469 C 19.152344 2.105469 19.554688 2.511719 19.554688 3.015625 L 19.554688 2.902344 C 19.554688 2.398438 19.152344 1.992188 18.648438 1.992188 Z M 3.183594 1.992188 "/>
<path style=" stroke:none;fill-rule:nonzero;fill:rgb(0%,0%,0%);fill-opacity:0.196078;" d="M 3.183594 19.273438 C 2.679688 19.273438 2.273438 18.867188 2.273438 18.363281 L 2.273438 18.25 C 2.273438 18.753906 2.679688 19.160156 3.183594 19.160156 L 18.648438 19.160156 C 19.152344 19.160156 19.554688 18.753906 19.554688 18.25 L 19.554688 18.363281 C 19.554688 18.867188 19.152344 19.273438 18.648438 19.273438 Z M 3.183594 19.273438 "/>
<path style="fill:none;stroke-width:3;stroke-linecap:round;stroke-linejoin:miter;stroke:rgb(12.941177%,12.941177%,12.941177%);stroke-opacity:1;stroke-miterlimit:4;" d="M 74.083834 -168.640791 L 433.958559 -168.640791 C 445.593812 -168.640791 455.047454 -159.187148 455.047454 -147.460995 L 455.047454 212.322829 C 455.047454 224.048982 445.593812 233.502625 433.958559 233.502625 L 74.083834 233.502625 C 62.357682 233.502625 52.904039 224.048982 52.904039 212.322829 L 52.904039 -147.460995 C 52.904039 -159.187148 62.357682 -168.640791 74.083834 -168.640791 Z M 74.083834 -168.640791 " transform="matrix(0.0429729,0,0,0.0429729,0,9.239163)"/>
<path style=" stroke:none;fill-rule:nonzero;fill:url(#linear2);" d="M 4.546875 9.722656 C 4.296875 9.722656 4.09375 9.925781 4.09375 10.175781 L 4.09375 17 C 4.09375 17.25 4.296875 17.453125 4.546875 17.453125 L 5.457031 17.453125 C 5.710938 17.453125 5.914062 17.25 5.914062 17 L 5.914062 14.269531 L 9.097656 14.269531 L 9.097656 17 C 9.097656 17.25 9.296875 17.453125 9.550781 17.453125 L 10.460938 17.453125 C 10.710938 17.453125 10.914062 17.25 10.914062 17 L 10.914062 10.175781 C 10.914062 9.925781 10.710938 9.722656 10.460938 9.722656 L 9.550781 9.722656 C 9.296875 9.722656 9.097656 9.925781 9.097656 10.175781 L 9.097656 12.90625 L 5.914062 12.90625 L 5.914062 10.175781 C 5.914062 9.925781 5.710938 9.722656 5.457031 9.722656 Z M 4.546875 9.722656 "/>
<path style=" stroke:none;fill-rule:nonzero;fill:rgb(100%,100%,100%);fill-opacity:1;" d="M 4.546875 9.722656 C 4.296875 9.722656 4.09375 9.925781 4.09375 10.175781 L 4.09375 10.40625 C 4.09375 10.152344 4.296875 9.949219 4.546875 9.949219 L 5.457031 9.949219 C 5.710938 9.949219 5.914062 10.152344 5.914062 10.40625 L 5.914062 10.175781 C 5.914062 9.925781 5.710938 9.722656 5.457031 9.722656 Z M 9.550781 9.722656 C 9.296875 9.722656 9.097656 9.925781 9.097656 10.175781 L 9.097656 10.40625 C 9.097656 10.152344 9.296875 9.949219 9.550781 9.949219 L 10.460938 9.949219 C 10.710938 9.949219 10.914062 10.152344 10.914062 10.40625 L 10.914062 10.175781 C 10.914062 9.925781 10.710938 9.722656 10.460938 9.722656 Z M 5.914062 12.90625 L 5.914062 13.132812 L 9.097656 13.132812 L 9.097656 12.90625 Z M 5.914062 12.90625 "/>
<path style=" stroke:none;fill-rule:nonzero;fill:rgb(0%,0%,0%);fill-opacity:0.235294;" d="M 5.914062 14.269531 L 5.914062 14.726562 L 9.097656 14.726562 L 9.097656 14.269531 Z M 4.09375 17 L 4.09375 17.453125 C 4.09375 17.707031 4.296875 17.910156 4.546875 17.910156 L 5.457031 17.910156 C 5.710938 17.910156 5.914062 17.707031 5.914062 17.453125 L 5.914062 17 C 5.914062 17.25 5.710938 17.453125 5.457031 17.453125 L 4.546875 17.453125 C 4.296875 17.453125 4.09375 17.25 4.09375 17 Z M 9.097656 17 L 9.097656 17.453125 C 9.097656 17.707031 9.296875 17.910156 9.550781 17.910156 L 10.460938 17.910156 C 10.710938 17.910156 10.914062 17.707031 10.914062 17.453125 L 10.914062 17 C 10.914062 17.25 10.710938 17.453125 10.460938 17.453125 L 9.550781 17.453125 C 9.296875 17.453125 9.097656 17.25 9.097656 17 Z M 9.097656 17 "/>
<path style="fill:none;stroke-width:11.338583;stroke-linecap:round;stroke-linejoin:round;stroke:rgb(12.941177%,12.941177%,12.941177%);stroke-opacity:1;stroke-miterlimit:4;" d="M 399.904566 855.122393 C 377.916687 855.122393 360.051534 872.987546 360.051534 894.975426 L 360.051534 1495.175836 C 360.051534 1517.163716 377.916687 1535.028869 399.904566 1535.028869 L 479.954192 1535.028869 C 502.285632 1535.028869 520.150785 1517.163716 520.150785 1495.175836 L 520.150785 1255.02696 L 800.152694 1255.02696 L 800.152694 1495.175836 C 800.152694 1517.163716 817.674285 1535.028869 840.005726 1535.028869 L 920.055351 1535.028869 C 942.043231 1535.028869 959.908384 1517.163716 959.908384 1495.175836 L 959.908384 894.975426 C 959.908384 872.987546 942.043231 855.122393 920.055351 855.122393 L 840.005726 855.122393 C 817.674285 855.122393 800.152694 872.987546 800.152694 894.975426 L 800.152694 1135.124302 L 520.150785 1135.124302 L 520.150785 894.975426 C 520.150785 872.987546 502.285632 855.122393 479.954192 855.122393 Z M 399.904566 855.122393 " transform="matrix(0.0113699,0,0,0.0113699,0,0)"/>
<path style=" stroke:none;fill-rule:nonzero;fill:url(#linear3);" d="M 16.816406 3.292969 C 16.683594 3.296875 16.558594 3.351562 16.460938 3.445312 L 15.097656 4.808594 C 14.964844 4.941406 14.910156 5.132812 14.960938 5.3125 C 15.007812 5.492188 15.148438 5.632812 15.328125 5.679688 C 15.507812 5.726562 15.699219 5.671875 15.828125 5.539062 L 16.152344 5.214844 L 15.910156 7.386719 L 15.007812 7.386719 C 14.824219 7.386719 14.648438 7.484375 14.554688 7.644531 C 14.460938 7.804688 14.460938 8.003906 14.554688 8.164062 C 14.648438 8.324219 14.824219 8.421875 15.007812 8.417969 L 17.738281 8.417969 C 18.019531 8.414062 18.246094 8.183594 18.246094 7.902344 C 18.246094 7.621094 18.019531 7.390625 17.738281 7.386719 L 16.949219 7.386719 L 17.339844 3.867188 C 17.355469 3.71875 17.308594 3.574219 17.207031 3.460938 C 17.109375 3.351562 16.964844 3.292969 16.816406 3.292969 Z M 16.816406 3.292969 "/>
<path style=" stroke:none;fill-rule:nonzero;fill:rgb(100%,100%,100%);fill-opacity:1;" d="M 16.816406 3.292969 C 16.683594 3.296875 16.558594 3.351562 16.460938 3.445312 L 15.097656 4.808594 C 14.976562 4.929688 14.921875 5.097656 14.949219 5.265625 C 14.96875 5.160156 15.019531 5.058594 15.097656 4.984375 L 16.460938 3.621094 C 16.558594 3.527344 16.683594 3.472656 16.816406 3.46875 C 17.074219 3.464844 17.296875 3.648438 17.335938 3.902344 L 17.339844 3.867188 C 17.355469 3.71875 17.308594 3.574219 17.207031 3.460938 C 17.109375 3.351562 16.964844 3.292969 16.816406 3.292969 Z M 16.152344 5.445312 L 16.125 5.472656 L 15.910156 7.386719 L 15.007812 7.386719 C 14.855469 7.386719 14.710938 7.453125 14.609375 7.566406 C 14.511719 7.683594 14.46875 7.839844 14.492188 7.988281 C 14.535156 7.738281 14.753906 7.558594 15.007812 7.5625 L 15.910156 7.5625 L 16.125 5.648438 L 16.128906 5.640625 Z M 16.972656 7.386719 L 16.949219 7.617188 L 16.96875 7.617188 L 16.972656 7.5625 L 17.738281 7.5625 C 17.984375 7.566406 18.195312 7.746094 18.238281 7.988281 C 18.261719 7.839844 18.222656 7.6875 18.125 7.574219 C 18.027344 7.457031 17.886719 7.390625 17.738281 7.386719 Z M 16.972656 7.386719 "/>
<path style=" stroke:none;fill-rule:nonzero;fill:rgb(0%,0%,0%);fill-opacity:0.235294;" d="M 17.328125 3.976562 L 16.949219 7.386719 L 16.980469 7.386719 L 17.339844 4.15625 C 17.347656 4.09375 17.34375 4.035156 17.328125 3.976562 Z M 16.152344 5.214844 L 15.828125 5.539062 C 15.699219 5.671875 15.511719 5.722656 15.332031 5.679688 C 15.15625 5.636719 15.015625 5.5 14.964844 5.324219 C 14.898438 5.550781 14.996094 5.792969 15.199219 5.914062 C 15.402344 6.03125 15.664062 5.996094 15.828125 5.828125 L 16.117188 5.539062 Z M 14.507812 8.046875 C 14.460938 8.203125 14.492188 8.375 14.589844 8.503906 C 14.6875 8.632812 14.84375 8.710938 15.007812 8.707031 L 17.738281 8.707031 C 17.898438 8.703125 18.046875 8.628906 18.144531 8.5 C 18.238281 8.367188 18.269531 8.203125 18.222656 8.046875 C 18.160156 8.265625 17.964844 8.414062 17.738281 8.417969 L 15.007812 8.417969 C 14.777344 8.421875 14.570312 8.269531 14.507812 8.046875 Z M 14.507812 8.046875 "/>
<path style="fill:none;stroke-width:3;stroke-linecap:round;stroke-linejoin:round;stroke:rgb(12.941177%,12.941177%,12.941177%);stroke-opacity:1;stroke-miterlimit:4;" d="M 391.326267 -138.370954 C 388.235653 -138.280054 385.326839 -137.007448 383.054329 -134.825838 L 351.330086 -103.101595 C 348.239472 -100.010981 346.966866 -95.556861 348.148572 -91.375442 C 349.239377 -87.194023 352.511791 -83.921608 356.69321 -82.830803 C 360.874629 -81.739998 365.328749 -83.012604 368.328463 -86.103218 L 375.873197 -93.647952 L 370.237371 -43.107324 L 349.239377 -43.107324 C 344.967057 -43.107324 340.876539 -40.834814 338.694929 -37.107897 C 336.513319 -33.38098 336.513319 -28.745059 338.694929 -25.018142 C 340.876539 -21.291226 344.967057 -19.018715 349.239377 -19.109616 L 412.778763 -19.109616 C 419.323593 -19.200516 424.595817 -24.56364 424.595817 -31.10847 C 424.595817 -37.653299 419.323593 -43.016424 412.778763 -43.107324 L 394.416881 -43.107324 L 403.506922 -125.008594 C 403.870523 -128.462809 402.779718 -131.826125 400.416308 -134.462236 C 398.143797 -137.007448 394.780482 -138.370954 391.326267 -138.370954 Z M 391.326267 -138.370954 " transform="matrix(0.0429729,0,0,0.0429729,0,9.239163)"/>
</g>
</svg>
